src/lib/packages/icons/src/assets/filled/laptop.svg

<svg width="24" height="24" viewBox="0 0 24 24" fill="none" xmlns="http://www.w3.org/2000/svg">
<path d="M20 7V14.2C20 14.366 19.866 14.5 19.7 14.5H4.30005C4.13405 14.5 4 14.366 4 14.2V7C4 5 5 4 7 4H17C19 4 20 5 20 7ZM20.7 16H3.30005C3.13405 16 3 16.134 3 16.3V17C3 18.333 3.667 19 5 19H19C20.333 19 21 18.333 21 17V16.3C21 16.134 20.866 16 20.7 16Z" fill="currentColor"/>
</svg>

<svg xmlns="http://www.w3.org/2000/svg" width="24" height="24" fill="none"><path fill="currentColor" d="M20 7v7.2a.3.3 0 0 1-.3.3H4.3a.3.3 0 0 1-.3-.3V7c0-2 1-3 3-3h10c2 0 3 1 3 3Zm.7 9H3.3a.3.3 0 0 0-.3.3v.7c0 1.333.667 2 2 2h14c1.333 0 2-.667 2-2v-.7a.3.3 0 0 0-.3-.3Z"/></svg>
